app/dist/common/images/mccormick.svg

<svg height="18" width="18" xmlns="http://www.w3.org/2000/svg"><path d="m0 0h18v18h-18z" fill="#f0f3fa"/><path d="m3.687 5.362 1.996-1.362 1.317 1.053 1.433-1.053 1.348 1 1.291-1 1.928 1.053v2.394l-2 1.61v-3.115s-.066-.679-1-.679v7.737h-2v-7.161s-.015-.575-1-.575v7.736h-2v-6.893s-.022-.903-1.313-.745z" fill="#0d2f8b"/><path d="m13.982 7.042-2.982 2.45v1.943l1.915 1.519 2.472-1.844-.112-.108s-.674.65-1.236.542c-.9-.109-1.04-.65-1.04-1.464v-1.844s.534.705 1.04.705c.45 0 .899-.38 1.348-.814z" fill="#f41521"/></svg>

<!-- by TradingView --><svg width="18" height="18" xmlns="http://www.w3.org/2000/svg"><path fill="#F0F3FA" d="M0 0h18v18H0z"/><path d="M3.687 5.362L5.683 4 7 5.053 8.433 4l1.348 1 1.291-1L13 5.053v2.394l-2 1.61V5.942s-.066-.679-1-.679V13H8V5.839s-.015-.575-1-.575V13H5V6.107s-.022-.903-1.313-.745z" fill="#0D2F8B"/><path d="M13.982 7.042L11 9.492v1.943l1.915 1.519 2.472-1.844-.112-.108s-.674.65-1.236.542c-.9-.109-1.04-.65-1.04-1.464V8.236s.534.705 1.04.705c.45 0 .899-.38 1.348-.814l-1.405-1.085z" fill="#F41521"/></svg>
